X:4915
T:Paddy Clancy's
O:England
M:6/8
L:1/8
Q:1/4=176
K:C
V:1
ge cd cA |c2 AG EG |cB cd cd |ed ed ef |
ge cd cA |c2 AG EG |cB cd ef |1 ec cc ef :|2
ec cc2 d|| |:e ge fa f|e ge ed c|e de fe f|
g ec dc d|e ge fa f|e ge ed c|e de dc d|
|1 e cc c2 d:|2 e cc c2 z|


